src/22/actions/im-aim.svg

<svg xmlns="http://www.w3.org/2000/svg" viewBox="0 0 22 22">
  <defs id="defs3051">
    <style type="text/css" id="current-color-scheme">
      .ColorScheme-Text {
        color:#5d656b;
      }
      </style>
  </defs>
 <path 
     style="fill:currentColor;fill-opacity:1;stroke:none" 
     d="M 15.316406 7.609375 L 15.316406 14.265625 L 16.376953 14.265625 L 16.376953 7.609375 L 15.316406 7.609375 z M 5.7148438 8.0175781 L 3 14.265625 L 4.2324219 14.265625 L 4.7988281 12.839844 L 7.4960938 12.839844 L 8.0761719 14.265625 L 9.3417969 14.265625 L 6.6582031 8.0175781 L 5.7148438 8.0175781 z M 6.1425781 9.3496094 C 6.2313239 9.6502094 6.3296245 9.9329519 6.4355469 10.199219 L 7.109375 11.882812 L 5.171875 11.882812 L 5.8417969 10.228516 C 5.9534448 9.9537152 6.0538324 9.661676 6.1425781 9.3496094 z M 12.039062 9.9023438 C 11.392078 9.9023438 10.845028 10.108245 10.398438 10.517578 C 9.9518455 10.924111 9.7285156 11.465025 9.7285156 12.140625 C 9.7285156 12.810558 9.9364621 13.352511 10.351562 13.767578 C 10.766665 14.182711 11.313712 14.390625 11.992188 14.390625 C 12.415876 14.390625 12.775448 14.325093 13.070312 14.193359 C 13.368041 14.058826 13.613926 13.879517 13.808594 13.65625 C 14.006125 13.432917 14.142365 13.189115 14.216797 12.925781 C 14.294092 12.659515 14.332031 12.442371 14.332031 12.273438 C 14.332031 11.932771 14.302307 11.661271 14.242188 11.460938 C 14.147716 11.143137 13.995048 10.862474 13.783203 10.619141 C 13.571358 10.375807 13.314262 10.195525 13.013672 10.078125 C 12.715944 9.9607917 12.391182 9.9023438 12.039062 9.9023438 z M 12.039062 10.839844 C 12.442713 10.839844 12.745962 10.968896 12.949219 11.226562 C 13.155337 11.484163 13.257813 11.805979 13.257812 12.195312 C 13.257814 12.418647 13.210615 12.630592 13.113281 12.828125 C 13.015947 13.025658 12.867453 13.181495 12.669922 13.298828 C 12.475254 13.416228 12.252967 13.476563 12.003906 13.476562 C 11.657512 13.476562 11.371599 13.356741 11.142578 13.119141 C 10.916419 12.878674 10.802734 12.560043 10.802734 12.162109 C 10.802734 11.764176 10.91955 11.445545 11.154297 11.205078 C 11.389044 10.961745 11.68408 10.839844 12.039062 10.839844 z M 18.300781 12.917969 C 18.10325 12.917969 17.934288 12.985647 17.796875 13.123047 C 17.662325 13.260447 17.595703 13.426427 17.595703 13.621094 C 17.595703 13.81576 17.665322 13.981741 17.802734 14.119141 C 17.940147 14.253741 18.106113 14.322266 18.300781 14.322266 C 18.492587 14.322266 18.655556 14.252701 18.792969 14.115234 C 18.930381 13.977834 19 13.812894 19 13.621094 C 19 13.426427 18.930381 13.260447 18.792969 13.123047 C 18.658419 12.985647 18.495449 12.917969 18.300781 12.917969 z "
     class="ColorScheme-Text"
     />
</svg>

<svg xmlns="http://www.w3.org/2000/svg" viewBox="0 0 22 22"><path d="M15.316 7.61v6.656h1.061V7.609h-1.06zm-9.601.408L3 14.266h1.232L4.8 12.84h2.697l.58 1.426h1.266L6.658 8.018h-.943zm.428 1.332c.088.3.187.583.293.85l.673 1.683H5.172l.67-1.654c.111-.275.212-.567.3-.88zm5.896.552c-.647 0-1.194.206-1.64.616-.447.406-.67.947-.67 1.623 0 .67.207 1.212.623 1.627.415.415.962.623 1.64.623.424 0 .783-.066 1.078-.198.298-.134.544-.313.739-.537.197-.223.333-.467.408-.73.077-.266.115-.484.115-.653 0-.34-.03-.612-.09-.812a2.235 2.235 0 0 0-.459-.842 1.943 1.943 0 0 0-.77-.54 2.635 2.635 0 0 0-.974-.177zm0 .938c.404 0 .707.129.91.387.206.257.309.579.309.968 0 .224-.047.436-.145.633a1.113 1.113 0 0 1-.443.47 1.266 1.266 0 0 1-.666.179c-.346 0-.632-.12-.861-.358-.227-.24-.34-.559-.34-.957 0-.398.117-.716.351-.957.235-.243.53-.365.885-.365zm6.262 2.078a.686.686 0 0 0-.504.205.685.685 0 0 0-.201.498c0 .195.07.36.207.498a.687.687 0 0 0 .498.203.67.67 0 0 0 .492-.207.675.675 0 0 0 .207-.494.68.68 0 0 0-.207-.498.66.66 0 0 0-.492-.205z" fill="currentColor" color="#5d656b"/></svg>
